X:439
T:Boys of the 25, The
R:reel
D:Tommy Keane: The Piper's Apron
Z:id:hn-reel-439
M:C|
K:Dmix
cAAF G2AB|cABG AddB|cAAF G2eg|1 fded AddB:|2 fded Adde||
|:~f3g a2ag|~f3g afde|1 fefg a2ge|fde^c Adde:|2 fgaf g2ag|fde^c AddB||
P:variations
|: cAAF G2AB|cABG AddB|cAAF G2 (3efg|1 fde^c AddB:|2 fde^c Adde||
|:f2fg a2ag|fefg afde|1 fefg abag|fde^c Adde:|2 fdaf gbag|fde^c AddB|| 

